X:60
T:The cup of tea
R:Reel
O:Ireland
S:PubScout's & Irish Traditional Music Session Tunes
Z:Transcription, arrangement, chords:Mike Long
M:C|
L:1/8
K:D
"Em"BAGF GEEF|GEBE GEE2|BAGF GEEG|"D"FDAG FDD2|\
"Em"BAGF GEEF|GEBE GEE2|
BAGF GABc|"D"dBAG FDD2:|\
|:"D"d2 (3(efg) "A"fdec|"D"d2 (3(efg) "Bm"fBB2|\
"D"d2 (3(efg) "G"fdec|"A"dBAG "D"FDD2|
"D"d2 (3(efg) "G"fdec|"D"dfaf "A"g2fg|\
"D"afge "G"fdec|"A"dBAG "D"FDD2:|\
|:"D"FAdA FAdA|"D"FAdA "A"GEE2|
"D"FAdA "G"BABc|"A"dBAG "D"FDD2|\
"D"FAdA FAdA|"D"FAde "A"fee2|"G"fdec dBAF|"A"GBAG "D"FDD2:|
